X:1
T:Title
%%score [ ( 1 2 ) ( 3 4 ) ]
L:1/8
Q:1/4=120
M:none
K:Bb
V:1 treble nm="Midi_74"
V:2 treble 
V:3 bass nm="Midi_74"
V:4 bass 
V:1
"^William Shakespeare\n(1564-1616)" G2 B4 A2 B2 G2 ^F2 G2 =F3 E D6 | %1
w: (1)~Poor soul, the cen- tre of my sin- ful earth,|
w: |
w: |
 F2 F2 D2 G3 A B3 A G2"^Michael Wise\n(1648-1687)" G2 ^F6 |: G2 B4 A2 B2 G2 ^F2 G2 =F3 E D6 | %3
w: why feed'st these re- bel pow'rs that thee ar- ray?|Why dost thou pine with- in, and suf- fer dearth,|
w: ||
w: |(3)~Buy terms di- vine in sell- ing hours of dross;|
 F2 F2 D2 G3 A | B3 A G2 G2 ^F6 || A2 A2 A2 B2 c2 d2 d2 c2 c2 B6 | %6
w: pain- ting thy out- ward|walls so cost- ly gay?|Why so large cost, hav- ing so short a lease,|
w: |||
w: with- in be fed, with-|out be rich no more:|So shalt thou feed on Death, that feeds on men,|
 D2 =E2 E2 ^F2 F2 G2 A2 F3 F G8 :| %7
w: dost thou up- on thy fa- ding man- sion spend?|
w: |
w: and, Death once dead, there's no more dy- ing then.|
V:2
 D2 D4 D2 D2 C2 D2 B,2 C2"^Sonnet 146" C2 D6 | D2 C2 B,2 B,3 D D2 D2 D2 C2 D6 |: %2
w: ||
w: ||
 D2 D4 D2 D2 C2 D2 B,2 C2 C2 D6 | D2 C2 B,2 B,3 D | D2 D2 D2 C2 D6 || %5
w: |||
w: (2)~Shall worms, in- her- it- ors of this ex- cess,|eat up thy charge? is|this thy bo- dy's end?|
 D2 D2 D2 D2 F2 F2 F2 F2 FE D6 | D2 D2 C2 D2 D2 D2 _E2 D3 D D8 :| %7
w: ||
w: Then soul, live thou up- on thy ser- vant's * loss,|and let that pine to ag- gra- vate thy store;|
V:3
 B,2 G,4 A,2 G,2 G,2 A,2 G,2 G,2 A,2 B,6 | F,2 F,2 F,2 G,3 ^F, G,3 A, B,2 G,2 A,6 |: %2
 B,2 G,4 A,2 G,2 G,2 A,2 G,2 G,2 A,2 B,6 | F,2 F,2 F,2 G,3 ^F, | G,3 A, B,2 G,2 A,6 || %5
 ^F,2 F,2 F,2 G,2 A,2 A,2 B,2 B,2 A,2 B,6 | %6
 B,2"^Arranged by Andrew Sims, 2016" G,2 A,2 A,2 A,2 B,2 A,2 A,3 A, B,8 :| %7
V:4
 G,,2 G,4 ^F,2 G,2 E,2 D,2 E,2 C,2 C,2 B,,6 | %1
 B,,2 A,,2 B,,2 G,,3 D, G,2 !courtesy!=F,2 E,2 E,2 D,6 |: %2
 G,,2 G,4 ^F,2 G,2 E,2 D,2 E,2 C,2 C,2 B,,6 | B,,2 A,,2 B,,2 G,,3 D, | %4
 G,2 !courtesy!=F,2 E,2 E,2 D,6 || D,2 D,2 D,2 G,2 !courtesy!=F,2 D,2 B,,2 F,2 F,2 B,,6 | %6
 B,,2 C,2 A,,2 D,2 C,2 B,,2 C,2 D,3 D, G,,8 :| %7

